X:185
T:Mayor Harrison's Fedora (reel) 
T:Major Harrison's Fedora
B:CRE2.243 (as English) 
F:file ID: cre.2/185may_har
N:1:Note |^G| in measure 11. 
N:2:O'Neill (OMI.799) has this as a three-part tune.
M:C
R:reel
Q:180
K:Em
F|GBEG B2AF|GFGA B2AG|FADF ADFA|d^cdB ADFA|
GBEG B2AF|GFGA BAB^c|d^cdB AFDF|GEED E3:|
z|(3B^cd ed e2ef|gefd edBA|^GABc d2 (3AB^c|dfaf gfed|
(3B^cd ed e2ef|gefd edB^c|dddB AGFA|GEED E3:|

%%%

